src/icons/svg/direction-left.svg

<?xml version="1.0" encoding="UTF-8"?>
<svg width="40px" height="30px" viewBox="0 0 40 30" version="1.1" xmlns="http://www.w3.org/2000/svg"
>
    <path d="M32.9920902,16.3651241 L11.8192563,16.3651241 C11.3171336,16.3651241 10.9100827,15.9580732 10.9100827,15.4559505 L10.9100827,13.6376034 C10.9100827,13.1354807 11.3171336,12.7284299 11.8192563,12.7284299 L33.0684608,12.7284299 L23.9330848,3.59123557 C23.5781599,3.23620343 23.5781599,2.66069629 23.9330848,2.30566415 L25.2168379,1.02009274 C25.3874066,0.84909228 25.6190067,0.752988847 25.8605328,0.752988847 C26.1020588,0.752988847 26.3336589,0.84909228 26.5042277,1.02009274 L37.4197654,11.9374489 L37.4324939,11.9229021 L39.9963633,14.4867715 C39.9986527,14.4884885 40,14.4911832 40,14.4940449 C40,14.4969066 39.9986527,14.4996013 39.9963633,14.5013183 C39.9928981,14.5048536 39.9928981,14.5105115 39.9963633,14.5140467 C40,14.517582 40,14.5232399 39.9963633,14.5267752 L37.4324939,17.092463 L37.4179471,17.0797345 L26.5042277,27.9952723 C26.3336589,28.1662728 26.1020588,28.2623762 25.8605328,28.2623762 C25.6190067,28.2623762 25.3874066,28.1662728 25.2168379,27.9952723 L23.9312665,26.7115192 C23.760266,26.5409505 23.6641626,26.3093504 23.6641626,26.0678243 C23.6641626,25.8262983 23.760266,25.5946982 23.9312665,25.4241295 L32.9920902,16.3651241 Z M2.72752068,0 C3.22964338,0 3.63669424,0.407050868 3.63669424,0.909173561 L3.63669424,28.1843804 C3.63669424,28.6865031 3.22964338,29.093554 2.72752068,29.093554 L0.909173561,29.093554 C0.407050868,29.093554 0,28.6865031 0,28.1843804 L0,0.909173561 C0,0.407050868 0.407050868,0 0.909173561,0 L2.72752068,0 Z"
          id="形状" fill="#646A73"></path>
    <path d="M32.9920902,16.3651241 L11.8192563,16.3651241 C11.3171336,16.3651241 10.9100827,15.9580732 10.9100827,15.4559505 L10.9100827,13.6376034 C10.9100827,13.1354807 11.3171336,12.7284299 11.8192563,12.7284299 L33.0684608,12.7284299 L23.9330848,3.59123557 C23.5781599,3.23620343 23.5781599,2.66069629 23.9330848,2.30566415 L25.2168379,1.02009274 C25.3874066,0.84909228 25.6190067,0.752988847 25.8605328,0.752988847 C26.1020588,0.752988847 26.3336589,0.84909228 26.5042277,1.02009274 L37.4197654,11.9374489 L37.4324939,11.9229021 L39.9963633,14.4867715 C39.9986527,14.4884885 40,14.4911832 40,14.4940449 C40,14.4969066 39.9986527,14.4996013 39.9963633,14.5013183 C39.9928981,14.5048536 39.9928981,14.5105115 39.9963633,14.5140467 C40,14.517582 40,14.5232399 39.9963633,14.5267752 L37.4324939,17.092463 L37.4179471,17.0797345 L26.5042277,27.9952723 C26.3336589,28.1662728 26.1020588,28.2623762 25.8605328,28.2623762 C25.6190067,28.2623762 25.3874066,28.1662728 25.2168379,27.9952723 L23.9312665,26.7115192 C23.760266,26.5409505 23.6641626,26.3093504 23.6641626,26.0678243 C23.6641626,25.8262983 23.760266,25.5946982 23.9312665,25.4241295 L32.9920902,16.3651241 Z M2.72752068,0 C3.22964338,0 3.63669424,0.407050868 3.63669424,0.909173561 L3.63669424,28.1843804 C3.63669424,28.6865031 3.22964338,29.093554 2.72752068,29.093554 L0.909173561,29.093554 C0.407050868,29.093554 0,28.6865031 0,28.1843804 L0,0.909173561 C0,0.407050868 0.407050868,0 0.909173561,0 L2.72752068,0 Z"
          id="形状" fill-opacity="0.2" fill="#000000"></path>
</svg>

<svg width="40" height="30" xmlns="http://www.w3.org/2000/svg"><path d="M32.992 16.365H11.82a.91.91 0 0 1-.909-.909v-1.818a.91.91 0 0 1 .91-.91h21.248l-9.135-9.137a.91.91 0 0 1 0-1.285l1.284-1.286a.91.91 0 0 1 1.287 0L37.42 11.937l.012-.014 2.564 2.564a.01.01 0 0 1 0 .014.01.01 0 0 0 0 .013.009.009 0 0 1 0 .013l-2.564 2.565-.014-.012-10.914 10.915a.91.91 0 0 1-1.287 0l-1.286-1.283a.91.91 0 0 1 0-1.288l9.061-9.059zM2.728 0a.91.91 0 0 1 .909.91v27.274a.91.91 0 0 1-.91.91H.91a.91.91 0 0 1-.909-.91V.91A.91.91 0 0 1 .91 0h1.818z" fill="currentColor"/><path d="M32.992 16.365H11.82a.91.91 0 0 1-.909-.909v-1.818a.91.91 0 0 1 .91-.91h21.248l-9.135-9.137a.91.91 0 0 1 0-1.285l1.284-1.286a.91.91 0 0 1 1.287 0L37.42 11.937l.012-.014 2.564 2.564a.01.01 0 0 1 0 .014.01.01 0 0 0 0 .013.009.009 0 0 1 0 .013l-2.564 2.565-.014-.012-10.914 10.915a.91.91 0 0 1-1.287 0l-1.286-1.283a.91.91 0 0 1 0-1.288l9.061-9.059zM2.728 0a.91.91 0 0 1 .909.91v27.274a.91.91 0 0 1-.91.91H.91a.91.91 0 0 1-.909-.91V.91A.91.91 0 0 1 .91 0h1.818z" fill-opacity=".2" fill="currentColor"/></svg>
